icons/svg/comment-processing.svg

﻿<?xml version="1.0" encoding="utf-8"?>
<!DOCTYPE svg PUBLIC "-//W3C//DTD SVG 1.1//EN" "http://www.w3.org/Graphics/SVG/1.1/DTD/svg11.dtd">
<svg xmlns="http://www.w3.org/2000/svg" xmlns:xlink="http://www.w3.org/1999/xlink" version="1.1" baseProfile="full" width="24" height="24" viewBox="0 0 24.00 24.00" enable-background="new 0 0 24.00 24.00" xml:space="preserve">
	<path fill="#000000" fill-opacity="1" stroke-width="0.2" stroke-linejoin="round" d="M 9,22C 8.44772,22 8,21.5523 8,21L 7.99999,18L 4,18C 2.89543,18 2,17.1046 2,16L 2.0094,3.99808C 2.0094,2.89308 2.89538,1.99809 3.99939,1.99809L 19.9994,1.99809C 21.1034,1.99809 21.9994,2.89308 21.9994,3.99808L 21.9994,15.9981C 21.9994,17.1021 21.1034,17.9981 19.9994,17.9981L 13.904,17.9997L 10.1979,21.7058C 10.0053,21.8984 9.75368,21.996 9.50124,21.9986L 9.5,22L 9,22 Z M 17,11L 17,9.00001L 15,9.00001L 15,11L 17,11 Z M 13,11L 13,9.00001L 11,9.00001L 11,11L 13,11 Z M 9,11L 9,9.00001L 7,9.00001L 7,11L 9,11 Z "/>
</svg>

<svg xmlns="http://www.w3.org/2000/svg" version="1.1" baseProfile="full" width="24" height="24" viewBox="0 0 24.00 24.00" xml:space="preserve"><path fill="#000" fill-opacity="1" stroke-width=".2" stroke-linejoin="round" d="M9 22c-.552 0-1-.448-1-1v-3H4c-1.105 0-2-.895-2-2l.01-12.002c0-1.105.885-2 1.99-2h16c1.103 0 2 .895 2 2v12c0 1.104-.897 2-2 2L13.903 18l-3.706 3.706c-.193.192-.444.29-.697.293H9zm8-11V9h-2v2h2zm-4 0V9h-2v2h2zm-4 0V9H7v2h2z"/></svg>
